X:1
T:Bavaria, LM
T:Bavaria, LM
T:German Tune
T:Public Domain Courtesy of the Cyber Hymnal™
C:German Tune
Z:Public Domain
Z:Courtesy of the Cyber Hymnal™
%%score ( 1 2 ) ( 3 4 )
L:1/8
Q:1/4=110
M:4/4
K:Eb
V:1 treble 
V:2 treble 
V:3 bass 
V:4 bass 
V:1
 [B,E]2 | [EG]2 [EA]2 [DB]2 [EB]2 | [Ec]2 [Ad]2 [Ge]2 [Ge]2 | [Fd]2 [Ec]2 [F=B]2 [Ec]2 | %4
 [Dc]2 [D=B]2 !fermata![Ec]2 [Ge]2 | [EB]2 [Ec]2 [EG]2 [DB]2 | [FA]2 [EG]2 [DF]2 [EG]2 | %7
 [FB]2 [DB]2 [EA]2 [EG]2 | [EF]2 [DF]2 !fermata!E2 |] %9
V:2
 x2 | x8 | x8 | x8 | x8 | x8 | x8 | x8 | x4 E2 |] %9
V:3
 [E,G,]2 | [E,B,]2 [C,A,]2 [B,,F,]2 [E,G,]2 | A,2 [F,A,]2 [E,B,]2 [E,B,]2 | %3
 [B,,B,]2 [C,G,]2 [D,F,]2 [E,G,]2 | [F,A,]2 G,2 !fermata![C,G,]2 [C,C]2 | %5
 [E,G,]2 [A,,A,]2 [C,E,]2 [B,,F,]2 | [D,B,]2 [E,B,]2 [B,,B,]2 [E,B,]2 | %7
 [D,B,]2 [G,B,]2 [C,C]2 [E,B,]2 | [A,,C]2 [B,,B,]2 !fermata![E,G,]2 |] %9
V:4
 x2 | x8 | A,2 x6 | x8 | x2 G,2 x4 | x8 | x8 | x8 | x6 |] %9

